X: 1
T: Parting, The
M: 4/4
L: 1/8
R: reel
K: Edor
EBBA ~B3A|B/2c/2dAF FEDF|EBBA Bcde|faf/2e/2d eBBA|
EBBA ~B3c|B/2c/2dAF FEDA|d/2e/2fec dBcA|G/2A/2BAF GEED:|
|:~G3B dBGB|AGFG A~dd2|eBgB eBG/2A/2B|Addc d/2e/2fdA|
e/2f/2gfe dBGB|ABAG F~DD2|GFGB dBG/2A/2B|AFDF ~E3F:|
